X:25
T:Petticoat loose. Ru1.025
%%VWML:RutherfordVol1-2248-p13-0p13
Z:Transcription by Village Music Project, Steve Mansfield July 2015
F:http://www.village-music-project.org.uk/
F:http://www.vwml.org/record/RutherfordVol1/2248/p13
L:1/8
W:Foot it and cast off two Couple .| Foot it & cast up again :|
W:Cross over two Cou. lead up to the Top, foot it & cast off .|.
W:Lead thro' the Bottom Cou. and turn your Partner Right
W:Hand, & Left at Top :|
Q:3/8=90
K:Gm
|:A | B2G AFD | B2G AFD | F3- F2A | F3- F2A |
B2G AFD | B2G AFD | G3- G2B | G3- G2 :|
|: A | Bcd cBA | BAG AFD | fgf fcA | fgf fcA |
Bcd cBA | BAG AFD | gag gdB | gag g2A |
Bcd cBA | BAG AFD | fgf fcA | fgf fcA |
Bcd cde | dcB AG^F | G3- G2B | G3- G2 :|
T:Breeches loose. Ru1.026
B:Rutherford's Country Dances Vol 1, 1756
Z:village music project, Steve Mansfield July 2015
M:6/8
L:1/8
W:Cast off & Hands round four with the 3d Cou. .|
W:Cast up & Hands round four with the 2d
W:Cou. :| Gallop down the Middle & up again
W:and cast off .|. Right Hand & Left with the
W:top Couple :|
Q:3/8=90
K:Gm
|:A | BdB cAc | BGG G2A | BdB cdB | AFF F2A |
BdB cAc | Bdg f2e | dcB (A/B/c)A | BGG G2 :|
|: A | Bdf- fdB | fdB fdB | ceg- gec | gec gec |
Bdf- fdB | bag fdB | (c/d/e)c (A/B/c)A | BGG G2 :|
